src/assets/icons/logo.svg

<svg
  xmlns="http://www.w3.org/2000/svg"
  version="1.1"
  viewBox="0 0 473 438"
  style="shape-rendering:geometricPrecision; text-rendering:geometricPrecision; image-rendering:optimizeQuality; fill-rule:evenodd; clip-rule:evenodd"
  xmlns:xlink="http://www.w3.org/1999/xlink"
>
  <g
    ><path
      style="opacity:1"
      fill="#f4f5f4"
      d="M 204.5,-0.5 C 211.833,-0.5 219.167,-0.5 226.5,-0.5C 231.936,3.75971 237.269,8.25971 242.5,13C 250.713,15.6499 259.046,17.9833 267.5,20C 273.009,21.6779 276.676,25.1779 278.5,30.5C 278.935,33.1573 279.935,35.4907 281.5,37.5C 282.659,39.2503 284.326,40.2503 286.5,40.5C 293.074,43.8026 300.074,46.136 307.5,47.5C 314.737,49.216 322.07,51.0494 329.5,53C 332.418,54.7088 335.252,56.5421 338,58.5C 338.495,60.4727 338.662,62.4727 338.5,64.5C 336.663,67.519 336.163,70.8524 337,74.5C 338.356,75.3802 339.856,75.7135 341.5,75.5C 345.466,76.1621 349.466,76.4955 353.5,76.5C 363.431,78.0488 371.931,82.3821 379,89.5C 379.88,95.5793 377.38,99.4126 371.5,101C 355.744,99.8556 340.078,100.689 324.5,103.5C 325.025,104.192 325.692,104.692 326.5,105C 331.184,105.435 335.851,105.935 340.5,106.5C 343.461,109.057 346.961,110.39 351,110.5C 357.087,108.908 363.253,108.408 369.5,109C 373.759,110.934 377.759,113.268 381.5,116C 385.418,117.156 389.418,117.656 393.5,117.5C 396.53,119.109 399.363,121.109 402,123.5C 403.65,129.926 402.15,135.426 397.5,140C 394.703,141.233 392.037,142.733 389.5,144.5C 393.028,146.231 396.694,147.565 400.5,148.5C 403.607,150.228 406.607,152.228 409.5,154.5C 410.072,156.917 411.072,159.084 412.5,161C 417.977,162.604 423.311,164.604 428.5,167C 430.229,168.789 430.896,170.956 430.5,173.5C 428.026,176.187 427.859,179.187 430,182.5C 432.826,184.829 435.992,186.496 439.5,187.5C 441.993,188.774 444.659,189.44 447.5,189.5C 451.365,190.697 454.865,192.697 458,195.5C 459.163,200.345 457.663,204.179 453.5,207C 447.098,208.382 441.098,210.549 435.5,213.5C 424.902,214.08 414.902,211.914 405.5,207C 394.379,203.257 383.713,204.09 373.5,209.5C 366.406,209.94 359.739,211.607 353.5,214.5C 343.866,215.392 334.199,215.725 324.5,215.5C 313.074,211.572 301.407,210.572 289.5,212.5C 286.447,212.111 283.78,212.777 281.5,214.5C 276.545,215.364 272.211,217.364 268.5,220.5C 264.5,222.5 261.5,225.5 259.5,229.5C 256.291,231.265 253.291,233.265 250.5,235.5C 246.529,238.776 243.529,242.776 241.5,247.5C 239.926,249.102 239.259,251.102 239.5,253.5C 238.732,254.263 238.232,255.263 238,256.5C 237.333,264.833 237.333,273.167 238,281.5C 239.039,282.71 240.206,283.71 241.5,284.5C 240.601,289.995 241.934,294.662 245.5,298.5C 246.967,301.973 247.634,305.64 247.5,309.5C 247.221,314.891 246.554,320.225 245.5,325.5C 242.355,329.766 239.188,334.099 236,338.5C 235.333,344.167 235.333,349.833 236,355.5C 238.852,359.435 242.519,362.435 247,364.5C 246.865,367.938 248.032,370.772 250.5,373C 254.673,374.222 258.673,375.722 262.5,377.5C 263.004,380.453 264.004,383.286 265.5,386C 270.613,386.855 275.613,388.021 280.5,389.5C 282.936,390.871 285.603,391.871 288.5,392.5C 292.284,397.397 293.451,403.063 292,409.5C 289.972,412.692 287.472,415.359 284.5,417.5C 278.849,419.839 273.183,421.839 267.5,423.5C 259.007,424.663 250.673,425.997 242.5,427.5C 222.585,428.557 202.918,426.891 183.5,422.5C 176.965,420.23 170.965,416.897 165.5,412.5C 164.6,407.228 164.267,401.895 164.5,396.5C 165.625,394.871 166.959,393.371 168.5,392C 173.337,389.912 178.337,388.412 183.5,387.5C 191.676,389.214 195.676,385.881 195.5,377.5C 197.584,376.752 199.584,376.752 201.5,377.5C 203.271,376.965 203.604,376.131 202.5,375C 204.32,374.8 205.653,373.966 206.5,372.5C 208.492,372.672 210.158,372.005 211.5,370.5C 212.036,366.392 214.202,363.725 218,362.5C 219.136,360.257 219.97,357.924 220.5,355.5C 222.059,349.34 221.726,343.34 219.5,337.5C 219.262,335.596 218.262,334.262 216.5,333.5C 216.573,331.973 215.906,330.973 214.5,330.5C 210.16,322.799 208.493,314.466 209.5,305.5C 209.232,303.901 209.566,302.568 210.5,301.5C 212.074,299.898 212.741,297.898 212.5,295.5C 213.75,295.423 214.583,294.756 215,293.5C 214.761,288.948 215.928,284.948 218.5,281.5C 218.666,272.827 218.5,264.16 218,255.5C 216.459,249.943 213.293,245.443 208.5,242C 202.307,238.738 196.64,234.738 191.5,230C 187.423,227.295 183.09,225.128 178.5,223.5C 175.493,221.825 172.16,221.159 168.5,221.5C 168.167,221.5 167.833,221.5 167.5,221.5C 167.167,221.5 166.833,221.5 166.5,221.5C 161.536,216.013 155.536,212.013 148.5,209.5C 148.611,208.883 148.944,208.383 149.5,208C 143.865,206.423 138.198,205.09 132.5,204C 132.833,203.667 133.167,203.333 133.5,203C 124.172,202.334 114.839,201.834 105.5,201.5C 100.766,200.334 96.0998,199.334 91.5,198.5C 86.6842,197.35 81.6842,197.184 76.5,198C 75.5842,198.278 74.9175,198.778 74.5,199.5C 73.5,200.167 72.5,200.833 71.5,201.5C 57.4131,205.269 43.0798,207.936 28.5,209.5C 24.1438,208.489 20.1438,206.656 16.5,204C 13.8406,200.407 11.8406,196.573 10.5,192.5C 9.20859,191.527 9.20859,190.527 10.5,189.5C 11.9905,188.756 13.4905,188.09 15,187.5C 15.6172,186.551 15.4506,185.718 14.5,185C 11.4691,183.925 9.4691,184.925 8.5,188C 5.77284,188.818 3.10618,188.652 0.5,187.5C 0.833333,186.833 1.16667,186.167 1.5,185.5C 4.47453,182.877 6.97453,179.877 9,176.5C 11.6213,175.375 14.1213,174.042 16.5,172.5C 20.319,171.598 23.9856,170.598 27.5,169.5C 28.209,168.596 29.209,168.263 30.5,168.5C 30.8204,165.102 30.487,161.768 29.5,158.5C 28.8165,158.137 28.1499,157.804 27.5,157.5C 25.4855,156.076 23.1522,155.41 20.5,155.5C 18.6954,154.763 17.0287,153.763 15.5,152.5C 8.01493,145.35 7.6816,138.016 14.5,130.5C 20.7209,127.108 27.3875,124.942 34.5,124C 35.9733,123.29 36.6399,122.124 36.5,120.5C 36.5858,119.504 36.2524,118.671 35.5,118C 31.5172,117.77 30.8506,116.437 33.5,114C 38.5,113.333 43.5,113.333 48.5,114C 51.7792,115.575 54.7792,114.908 57.5,112C 54.8333,111.333 54.8333,110.667 57.5,110C 64.9222,108.341 72.4222,107.174 80,106.5C 81.8122,106.493 83.3122,107.16 84.5,108.5C 87.9408,105.476 91.7741,104.476 96,105.5C 96.4828,104.552 96.6495,103.552 96.5,102.5C 97.552,102.649 98.552,102.483 99.5,102C 98.1667,100.333 98.1667,98.6667 99.5,97C 96.9429,97.2809 94.2763,97.1142 91.5,96.5C 91.3613,90.474 94.3613,87.6407 100.5,88C 101.056,87.6174 101.389,87.1174 101.5,86.5C 103.512,85.7717 105.512,84.9383 107.5,84C 109.771,81.2179 112.437,79.0512 115.5,77.5C 117.967,77.2451 119.967,76.2451 121.5,74.5C 125.469,73.3397 129.469,72.1731 133.5,71C 136.342,68.5951 136.009,66.7618 132.5,65.5C 129.835,62.6653 127.335,59.6653 125,56.5C 124.294,54.0288 124.627,51.6954 126,49.5C 131.899,44.9857 137.899,40.6523 144,36.5C 147.933,30.2981 151.6,23.9647 155,17.5C 157.501,14.1517 160.668,11.8184 164.5,10.5C 171.47,8.36868 178.47,6.70201 185.5,5.5C 185.833,5.5 186.167,5.5 186.5,5.5C 193.271,5.31931 199.271,3.31931 204.5,-0.5 Z"
    ></path></g
  >
</svg>

<svg xmlns="http://www.w3.org/2000/svg" viewBox="0 0 473 438" style="shape-rendering:geometricPrecision;text-rendering:geometricPrecision;image-rendering:optimizeQuality;fill-rule:evenodd;clip-rule:evenodd; width:100%; height:auto;">
  <!-- Circular white background -->
  <circle cx="236.5" cy="219" r="219" fill="white" />

  <!-- Tree path scaled and centered -->
  <g transform="translate(236.5,219) scale(0.6) translate(-220.5,-219)">
    <path style="opacity:1" fill="#134635" d="M204.5-.5h22a293 293 0 0 1 16 13.5 333 333 0 0 0 25 7q8.264 2.517 11 10.5.653 3.985 3 7 1.739 2.625 5 3 9.861 4.954 21 7a948 948 0 0 1 22 5.5 113 113 0 0 1 8.5 5.5q.743 2.96.5 6-2.755 4.528-1.5 10 2.034 1.32 4.5 1 5.949.994 12 1 14.896 2.323 25.5 13 1.32 9.12-7.5 11.5a187.3 187.3 0 0 0-47 2.5 4.46 4.46 0 0 0 2 1.5q7.026.653 14 1.5 4.442 3.835 10.5 4a52.9 52.9 0 0 1 18.5-1.5 68 68 0 0 1 12 7 37.1 37.1 0 0 0 12 1.5q4.545 2.413 8.5 6 2.475 9.639-4.5 16.5a47.5 47.5 0 0 0-8 4.5 54.3 54.3 0 0 0 11 4 68.4 68.4 0 0 1 9 6q.858 3.626 3 6.5a116 116 0 0 1 16 6q2.594 2.684 2 6.5-3.711 4.03-.5 9a26.1 26.1 0 0 0 9.5 5q3.739 1.91 8 2 5.798 1.796 10.5 6 1.745 7.268-4.5 11.5-9.603 2.073-18 6.5-15.897.87-30-6.5-16.681-5.615-32 2.5-10.641.66-20 5a251 251 0 0 1-29 1q-17.14-5.892-35-3-4.58-.584-8 2-7.433 1.296-13 6-6 3-9 9a62.7 62.7 0 0 0-9 6q-5.957 4.914-9 12-2.361 2.403-2 6-1.152 1.144-1.5 3a156.4 156.4 0 0 0 0 25 14.7 14.7 0 0 0 3.5 3q-1.349 8.243 4 14 2.2 5.21 2 11a111 111 0 0 1-2 16 1923 1923 0 0 0-9.5 13 72.5 72.5 0 0 0 0 17q4.278 5.903 11 9-.202 5.157 3.5 8.5a85.4 85.4 0 0 1 12 4.5q.756 4.43 3 8.5a120 120 0 0 1 15 3.5q3.654 2.056 8 3 5.676 7.345 3.5 17-3.042 4.788-7.5 8a167 167 0 0 1-17 6 553 553 0 0 0-25 4q-29.873 1.586-59-5-9.803-3.405-18-10a75.5 75.5 0 0 1-1-16 25 25 0 0 1 4-4.5 67.2 67.2 0 0 1 15-4.5q12.264 2.571 12-10 3.126-1.122 6 0 2.656-.803 1-2.5 2.73-.3 4-2.5 2.987.258 5-2 .803-6.162 6.5-8a29.3 29.3 0 0 0 2.5-7q2.339-9.24-1-18-.357-2.856-3-4 .11-2.29-2-3-6.51-11.551-5-25-.401-2.398 1-4 2.361-2.403 2-6 1.875-.116 2.5-2-.358-6.828 3.5-12 .25-13.01-.5-26-2.311-8.335-9.5-13.5a80 80 0 0 1-17-12 59.3 59.3 0 0 0-13-6.5q-4.51-2.512-10-2h-2q-7.446-8.23-18-12 .166-.925 1-1.5a208 208 0 0 0-17-4l1-1a789 789 0 0 0-28-1.5 231 231 0 0 0-14-3q-7.224-1.725-15-.5-1.373.417-2 1.5l-3 2a283 283 0 0 1-43 8 32.7 32.7 0 0 1-12-5.5q-3.99-5.39-6-11.5-1.937-1.46 0-3a55 55 0 0 1 4.5-2q.925-1.423-.5-2.5-4.545-1.612-6 3-4.09 1.227-8-.5l1-2a38 38 0 0 0 7.5-9 50 50 0 0 0 7.5-4 161 161 0 0 0 11-3q1.063-1.356 3-1a25.9 25.9 0 0 0-1-10 44 44 0 0 0-2-1q-3.022-2.136-7-2a19.2 19.2 0 0 1-5-3q-11.227-10.726-1-22 9.331-5.087 20-6.5 2.21-1.065 2-3.5.129-1.494-1-2.5-5.975-.345-2-4 7.5-1 15 0 4.92 2.362 9-2-4-1 0-2a173.5 173.5 0 0 1 22.5-3.5q2.718-.01 4.5 2 5.16-4.536 11.5-3 .725-1.422.5-3a4.93 4.93 0 0 0 3-.5q-2-2.5 0-5-3.836.42-8-.5-.208-9.04 9-8.5.834-.575 1-1.5a69 69 0 0 0 6-2.5q3.406-4.173 8-6.5 3.7-.382 6-3 5.953-1.74 12-3.5 4.263-3.607-1-5.5a98 98 0 0 1-7.5-9q-1.06-3.707 1-7a399 399 0 0 1 18-13 271 271 0 0 0 11-19q3.752-5.022 9.5-7a169 169 0 0 1 21-5h1q10.157-.27 18-6"/>
  </g>
</svg>
